X: 2
T: Mist in the Morning
M: 6/8
L: 1/8
R: jig
K: Gmaj
|: ~B3 G2 D | G2 D G2 A | ~B3 G2 D | G2 A B2 A |
~B3 G2 D | G2 D G2 A | B2 d d2 B | A2 B cBA :|
|: B2 d d2 d | d2 B d d2 | B2 d d2 d | e2 f g3 |
B2 d d2 d | d2 B def | gfe d2 B | A2 B cBA :|
